!!!COM: Corelli, Arcangelo
!!!OPR: Sonata da chiesa
!!!OPS: 1
!!!ONM: 10
!!!OMV: 1
!!!OMD: Grave
**kern	**fb	**kern	**kern
*part3	*part3	*part2	*part1
*staff3	*	*staff2	*staff1
*I"Violone & Organo	*	*I"Violino II	*I"Violino I
*clefF4	*	*clefG2	*clefG2
*k[b-]	*	*k[b-]	*k[b-]
*d:	*	*d:	*d:
*M4/4	*	*M4/4	*M4/4
*met(c)	*	*met(c)	*met(c)
*MM34	*	*MM34	*MM34
=1	=1	=1	=1
4GG	.	4r	2dd
4G	.	2b-	.
4E-X	6 5	.	2cc
4F	.	[4a	.
=2	=2	=2	=2
4D	6 5	4a]	2b-
4E-X	.	2g	.
4C	6 5 -	.	4a
4D	#	4f#X	[4dd
=3	=3	=3	=3
2E-X	7	4g	4dd]
.	6	8aL	2cc
.	.	8gJ	.
4D	7 #	8f#XL	.
.	.	8dJ	.
4E-	5	[4g	4b-
=4	=4	=4	=4
4C	6 5 -	4g]	2a
4D	#	4f#X	.
4G	.	4g	4g
4F	6	4a	[4dd
=5	=5	=5	=5
2E-X	7	2g	4dd]
.	6	.	4cc
2D	#	2f#X	2dd
=6	=6	=6	=6
4BB-	5	2dd	4ff
4B-	6	.	2gg
2A	7	2cc	.
.	6	.	[4ff
=7	=7	=7	=7
4G	7	2b-	4ff]
4C	7 -	.	2ee-X
4F	-7	4a	.
4G	5	[4b-	4dd
=8	=8	=8	=8
4E-X	6 5	4b-]	2cc
4F	.	4a	.
4BB-	.	4b-	4b-
[4G	5	4b-	4dd
=9	=9	=9	=9
4G]	4 2	2a	4cc
2F	6	.	4dd
.	#4| 2	4g	4bn
4E-X	6	4gg	[4cc
=10	=10	=10	=10
4D	7	2ff	4cc]
4GG	7 n	.	4bn
4C	-	4ee-X	4cc
4BBn	6	[4g	4dd
=11	=11	=11	=11
2C	5 -	4g]	(8ee-XL
.	.	.	8ddJ)
.	6	8aL	2cc
.	.	8gJ	.
[2D	7 #	8f#XL	.
.	.	8dJ	.
.	6 4	[4g	4b-Xi
=12	=12	=12	=12
2D]	5 4	4g]	2a
.	#	4f#X	.
2GG	.	2g	2g
=:|!	=:|!	=:|!	=:|!
*-	*-	*-	*-
!!!system-decoration: [{s1,s2},s3]
!!!YEM: CC BY-NC-SA 4.0; CCARH; DCML
!!!RDF**kern: i = editorial accidental